!!!COM: de Machuat, Guillaume
!!!OTL: De tout sui si confortee
!! Guillaume de Machaut, "De tout sui si confortee" No. 32 from Volume 5 of
!! "Oeuvres Comple\tes" E/ditions de l'Oiseau-lyre (Monaco) -1977; p.53
!! The second ending is encoded.
**kern	**kern
*M2/4	*M2/4
=1	=1
2F	8c
.	8B
.	8c
.	8A
=2	=2
2E	4B
.	4c
=3	=3
2D	8d
.	8c
.	8c
.	8B
=4	=4
[2C	2c
=5	=5
2C]	4c
.	4r
=6	=6
4.c	8F
.	8E
.	8F
8B-	8G
=7	=7
8r	4A
8A	.
8G	4A
8F	.
=8	=8
4E	4G
4D	4A
=9	=9
4C	8c
.	4B-
[4F	.
.	8A
=10	=10
4F]	8A
.	8G
4F	8G
.	8F
=11	=11
[2E	2G
=12	=12
2E]	4G
.	4r
=13	=13
4A	4F
4G	4E
=14	=14
8r	4F
8F	.
4E	8Bn
.	8c
=15	=15
2D	8d
.	8c
.	8c
.	8B
=16	=16
2C	2c
=17	=17
4.c	8F
.	8G
.	8F
8B-	8G
=18	=18
8r	4A
8A	.
8G	4A
8F	.
=19	=19
4E	4G
4D	4A
=20	=20
4C	8c
.	4B-
[4F	.
.	[8A
=21	=21
4F]	8A]
.	4G
4A	.
.	8F
=22	=22
[2G	[2E
=23	=23
2G]	2E]
=24	=24
4r	8F
.	8G
4D	4A
=25	=25
4C	8c
.	8B-
[4D	8A
.	8B-
=26	=26
4D]	4A
4E	4G
=27	=27
1F	1F
=28	=28
[2F	4f
.	4f
=29	=29
4F]	8g
.	8f
[4G	8f
.	8e
=30	=30
4G]	8e
.	8d
4A	8d
.	8c#
=31	=31
2D	2d
=32	=32
4E	4c#
4D	4d
=33	=33
4C	8e
.	8d
[4F	8d
.	8c
=34	=34
4F]	8c
.	8B-
4F	8A
.	8B-
=35	=35
4E	2G
[4G	.
=36	=36
4G]	8Bn
.	8c
4F	8d
.	8e
=37	=37
4E	8d
.	4c
4D	.
.	8B
=38	=38
1C	1c
==	==
*-	*-
